resources/svg/bitcoin-o.svg

<svg xmlns="http://www.w3.org/2000/svg" viewBox="0 0 15 15" fill="none"><path d="M3.5 1.5H8.5C10.1569 1.5 11.5 2.84315 11.5 4.5C11.5 6.15685 10.1569 7.5 8.5 7.5H3.5M3.5 1.5V7.5M3.5 1.5H2M3.5 1.5V0M3.5 7.5H9.5C11.1569 7.5 12.5 8.84315 12.5 10.5C12.5 12.1569 11.1569 13.5 9.5 13.5H3.5M3.5 7.5V13.5M3.5 7.5H2M3.5 13.5H2M3.5 13.5V15M7.5 0V1.5M7.5 13.5V15" stroke="black"/></svg>

<svg xmlns="http://www.w3.org/2000/svg" viewBox="0 0 15 15" fill="none"><path d="M3.5 1.5h5a3 3 0 110 6h-5m0-6v6m0-6H2m1.5 0V0m0 7.5h6a3 3 0 110 6h-6m0-6v6m0-6H2m1.5 6H2m1.5 0V15m4-15v1.5m0 12V15" stroke="currentColor"/></svg>
